app/javascript/images/logo-symbol-wordmark.svg

<?xml version="1.0" encoding="UTF-8" standalone="no"?>
<!-- Created with Inkscape (http://www.inkscape.org/) -->

<svg
   width="210mm"
   height="297mm"
   viewBox="0 0 210 297"
   version="1.1"
   id="svg5"
   inkscape:version="1.1.1 (3bf5ae0d25, 2021-09-20)"
   sodipodi:docname="logo-symbol-wordmark.svg"
   xmlns:inkscape="http://www.inkscape.org/namespaces/inkscape"
   xmlns:sodipodi="http://sodipodi.sourceforge.net/DTD/sodipodi-0.dtd"
   xmlns:xlink="http://www.w3.org/1999/xlink"
   xmlns="http://www.w3.org/2000/svg"
   xmlns:svg="http://www.w3.org/2000/svg">
  <sodipodi:namedview
     id="namedview7"
     pagecolor="#505050"
     bordercolor="#eeeeee"
     borderopacity="1"
     inkscape:pageshadow="0"
     inkscape:pageopacity="0"
     inkscape:pagecheckerboard="0"
     inkscape:document-units="mm"
     showgrid="false"
     inkscape:zoom="2.0762433"
     inkscape:cx="415.41375"
     inkscape:cy="344.13116"
     inkscape:window-width="2560"
     inkscape:window-height="1009"
     inkscape:window-x="1912"
     inkscape:window-y="-8"
     inkscape:window-maximized="1"
     inkscape:current-layer="logo-symbol-wordmark" />
  <defs
     id="defs2">
    <linearGradient
       id="paint0_linear_89_11"
       x1="30.5"
       y1="0.0130005"
       x2="30.5"
       y2="65.013"
       gradientUnits="userSpaceOnUse">
      <stop
         stop-color="#6364FF"
         id="stop830" />
      <stop
         offset="1"
         stop-color="#563ACC"
         id="stop832" />
    </linearGradient>
  </defs>
  <g
     inkscape:label="Layer 1"
     inkscape:groupmode="layer"
     id="layer1">
    <g
       style="fill:none"
       id="g861"
       transform="matrix(0.26458333,0,0,0.26458333,86.328037,87.27554)">
      <symbol
         id="logo-symbol-wordmark">
        <path
           d="M 60.7539,14.4034 C 59.8143,7.41942 53.7273,1.91557 46.5117,0.849066 45.2943,0.668854 40.6819,0.0130005 29.9973,0.0130005 H 29.9175 C 19.2299,0.0130005 16.937,0.668854 15.7196,0.849066 8.70488,1.88602 2.29885,6.83152 0.744617,13.8982 -0.00294988,17.3784 -0.0827298,21.2367 0.0561464,24.7759 0.254119,29.8514 0.292531,34.918 0.753482,39.9728 c 0.318668,3.3577 0.874578,6.6886 1.663558,9.9678 1.47741,6.0563 7.45795,11.0963 13.31736,13.1525 6.2733,2.1443 13.0198,2.5003 19.484,1.0281 0.7111,-0.1654 1.4134,-0.3574 2.1068,-0.5761 1.5719,-0.4992 3.4128,-1.0576 4.7661,-2.0384 0.0186,-0.0138 0.0338,-0.0316 0.0445,-0.052 0.0108,-0.0205 0.0168,-0.0431 0.0176,-0.0662 v -4.8982 c -4e-4,-0.0216 -0.0055,-0.0428 -0.0151,-0.0622 -0.0096,-0.0193 -0.0234,-0.0363 -0.0404,-0.0496 -0.017,-0.0133 -0.0368,-0.0226 -0.0579,-0.0273 -0.021,-0.0047 -0.0429,-0.0046 -0.0639,2e-4 -4.1416,0.9892 -8.3856,1.485 -12.6437,1.4772 -7.3279,0 -9.2988,-3.4772 -9.8631,-4.9248 -0.4537,-1.2511 -0.7418,-2.5562 -0.8569,-3.882 -0.0012,-0.0222 0.0029,-0.0445 0.0119,-0.0649 0.009,-0.0203 0.0227,-0.0383 0.04,-0.0524 0.0173,-0.0141 0.0376,-0.024 0.0594,-0.0287 0.0218,-0.0048 0.0444,-0.0043 0.066,0.0013 4.0725,0.9824 8.2473,1.4782 12.4368,1.4771 1.0075,0 2.0122,0 3.0198,-0.0266 4.2135,-0.1182 8.6546,-0.3338 12.8002,-1.1433 0.1034,-0.0207 0.2069,-0.0384 0.2955,-0.065 6.539,-1.2556 12.7618,-5.1966 13.3942,-15.1762 0.0236,-0.3929 0.0827,-4.1153 0.0827,-4.523 0.0029,-1.3856 0.4462,-9.829 -0.065,-15.0167 z"
           fill="url(#paint0_linear_89_11)"
           id="path824" />
        <path
           d="m 12.3442,18.3034 c 0,-2.0366 1.6335,-3.684 3.6528,-3.684 2.0193,0 3.6527,1.6474 3.6527,3.684 0,2.0366 -1.6334,3.684 -3.6527,3.684 -2.0193,0 -3.6528,-1.6474 -3.6528,-3.684 z"
           fill="currentColor"
           id="path826" />
        <path
           d="m 260.17,21.261 v 16.617 h -6.547 V 22.1301 c 0,-1.7901 -0.45,-3.1392 -1.376,-4.164 -0.862,-0.921 -2.083,-1.401 -3.653,-1.401 -3.704,0 -5.582,2.2182 -5.582,6.7065 V 37.878 h -6.546 V 10.8316 h 6.546 v 3.0354 c 1.569,-2.5425 4.065,-3.7878 7.563,-3.7878 2.791,0 5.081,0.9729 6.856,2.9706 1.826,1.9976 2.739,4.7088 2.739,8.2242"
           id="path1899"
           fill="currentColor" />
        <path
           id="path1897"
           d="M 544.66211 339.92578 C 540.90611 339.92578 537.70319 341.32684 535.11719 344.08984 C 532.53219 346.85284 531.25977 350.14878 531.25977 354.20898 C 531.25977 358.26918 532.53219 361.61591 535.11719 364.37891 C 537.70319 367.14191 540.85511 368.49023 544.66211 368.49023 C 548.46911 368.49023 551.62008 367.14191 554.20508 364.37891 C 556.79108 361.61591 558.11328 358.15248 558.11328 354.20898 C 558.11328 350.26548 556.79108 346.85284 554.20508 344.08984 C 551.62008 341.32684 548.41711 339.92578 544.66211 339.92578 z M 544.66211 346.73633 C 546.64311 346.73633 548.26289 347.45056 549.58789 348.85156 C 550.91289 350.26546 551.56836 352.04268 551.56836 354.20898 C 551.56836 356.37528 550.91289 358.16541 549.58789 359.56641 C 548.26289 360.98031 546.64311 361.67969 544.66211 361.67969 C 542.68111 361.67969 541.05837 360.96741 539.73438 359.56641 C 538.46038 358.10061 537.80469 356.32338 537.80469 354.20898 C 537.80469 352.09458 538.46038 350.31736 539.73438 348.85156 C 541.05837 347.43766 542.68111 346.73633 544.66211 346.73633 z "
           transform="translate(-326.2792,-329.86031)"
           fill="currentColor" />
        <path
           id="path1893"
           d="M 520.0293 329.85938 L 520.0293 329.87305 L 520.0293 343.89648 C 518.1003 341.25028 515.20683 339.95312 511.79883 339.95312 C 508.38983 339.95313 505.44467 341.35419 503.01367 344.11719 C 500.63467 346.88029 499.41406 350.23898 499.41406 354.23438 C 499.41406 358.22967 500.62167 361.6413 503.01367 364.4043 C 505.45767 367.1674 508.23583 368.51758 511.79883 368.51758 C 515.36083 368.51758 518.1003 367.20685 520.0293 364.56055 L 520.0293 367.75195 L 526.57812 367.75195 L 526.57812 329.85938 L 520.0293 329.85938 z M 513.02148 346.59375 C 515.05348 346.59375 516.72578 347.29397 518.05078 348.75977 C 519.37478 350.16077 520.0293 352.0025 520.0293 354.2207 C 520.0293 356.4389 519.37478 358.26858 518.05078 359.73438 C 516.72578 361.14837 515.00148 361.84961 513.02148 361.84961 C 511.04048 361.84961 509.31545 361.13537 507.93945 359.73438 C 506.61445 358.28158 505.95898 356.4389 505.95898 354.2207 C 505.95898 352.0025 506.61445 350.16077 507.93945 348.75977 C 509.31545 347.29397 510.98848 346.59375 513.02148 346.59375 z "
           transform="translate(-326.2792,-329.86031)"
           fill="currentColor" />
        <path
           id="path1889"
           d="M 482.70508 339.93945 C 478.94908 339.93945 475.74711 341.34052 473.16211 344.10352 C 470.57611 346.86652 469.30273 350.1605 469.30273 354.2207 C 469.30273 358.2809 470.57611 361.62948 473.16211 364.39258 C 475.74711 367.15558 478.89808 368.50391 482.70508 368.50391 C 486.51208 368.50391 489.664 367.15558 492.25 364.39258 C 494.835 361.62948 496.16016 358.1641 496.16016 354.2207 C 496.16016 350.2772 494.835 346.86652 492.25 344.10352 C 489.664 341.34052 486.46108 339.93945 482.70508 339.93945 z M 482.70508 346.75 C 484.68608 346.75 486.30586 347.46228 487.63086 348.86328 C 488.95586 350.27718 489.61133 352.0544 489.61133 354.2207 C 489.61133 356.387 488.95586 358.17713 487.63086 359.57812 C 486.30586 360.99202 484.68608 361.69336 482.70508 361.69336 C 480.72408 361.69336 479.1043 360.97902 477.7793 359.57812 C 476.5063 358.11233 475.84961 356.3351 475.84961 354.2207 C 475.84961 352.1063 476.5063 350.32908 477.7793 348.86328 C 479.1043 347.44928 480.72408 346.75 482.70508 346.75 z "
           transform="translate(-326.2792,-329.86031)"
           fill="currentColor" />
        <path
           d="m 140.477,17.538 h -5.736 v 11.2597 c 0,1.3491 0.514,2.1663 1.479,2.5425 0.707,0.2724 2.135,0.3243 4.27,0.2205 v 6.3303 c -4.411,0.5448 -7.614,0.1038 -9.492,-1.3491 -1.878,-1.401 -2.791,-4.0083 -2.791,-7.7313 V 17.538 h -4.412 v -6.7064 h 4.412 V 5.37038 l 6.547,-2.11443 v 7.57565 h 5.736 v 6.7064 z"
           id="path1885"
           fill="currentColor" />
        <path
           d="m 119.654,23.8683 c 1.929,1.4659 2.894,3.5154 2.842,6.1098 0,2.763 -0.964,4.9294 -2.945,6.4341 -1.981,1.4658 -4.373,2.2182 -7.267,2.2182 -5.235,0 -8.785,-2.1663 -10.663,-6.4341 l 5.685,-3.4116 c 0.759,2.322 2.431,3.5154 4.978,3.5154 2.341,0 3.498,-0.7524 3.498,-2.322 0,-1.1415 -1.517,-2.1663 -4.617,-2.9706 -1.17,-0.3242 -2.135,-0.6485 -2.894,-0.921 -1.067,-0.428 -1.981,-0.921 -2.739,-1.5177 -1.878,-1.4658 -2.843,-3.4116 -2.843,-5.9022 0,-2.6463 0.913,-4.7607 2.74,-6.2784 1.877,-1.5696 4.167,-2.322 6.906,-2.322 4.374,0 7.563,1.8939 9.647,5.7336 l -5.582,3.243 c -0.81,-1.842 -2.187,-2.763 -4.065,-2.763 -1.98,0 -2.945,0.7523 -2.945,2.2182 0,1.1415 1.518,2.1663 4.618,2.9705 2.392,0.5449 4.27,1.3491 5.633,2.3869 z"
           id="path1883"
           fill="currentColor" />
        <path
           d="M 66.1484,21.4685 V 38.3839 H 59.4988 V 21.9744 c 0,-3.4635 -1.4405,-5.2147 -4.3345,-5.2147 -3.1897,0 -4.7975,2.0885 -4.7975,6.2006 v 8.9896 h -6.5981 v -8.9896 c 0,-4.1251 -1.5949,-6.2006 -4.7975,-6.2006 -2.8811,0 -4.3345,1.7512 -4.3345,5.2147 V 38.3839 H 28 V 21.4685 c 0,-3.4505 0.8746,-6.2005 2.6238,-8.2371 1.8136,-2.0366 4.1801,-3.0744 7.1127,-3.0744 3.3955,0 5.9807,1.3232 7.6785,3.9565 l 1.6592,2.8019 1.6592,-2.8019 c 1.6977,-2.6333 4.2701,-3.9565 7.6785,-3.9565 2.9325,0 5.2991,1.0378 7.1127,3.0744 1.7492,2.0366 2.6238,4.7736 2.6238,8.2371 z"
           id="path828"
           fill="currentColor" />
        <g
           id="g2359"
           transform="matrix(0.11503157,0,0,0.11503157,66.804065,5.4333894)"
           fill="currentColor"
           style="fill:#ffffff">
          <g
             id="s"
             transform="translate(150,30)"
             fill="#ffcc00"
             style="fill:#ffffff">
            <g
               id="c"
               style="fill:#ffffff">
              <path
                 id="t"
                 d="M 0,-20 V 0 h 10"
                 transform="rotate(18,0,-20)"
                 style="fill:#ffffff" />
              <use
                 xlink:href="#t"
                 transform="scale(-1,1)"
                 id="use2300"
                 x="0"
                 y="0"
                 width="100%"
                 height="100%"
                 style="fill:#ffffff" />
            </g>
            <use
               xlink:href="#c"
               transform="rotate(72)"
               id="use2303"
               x="0"
               y="0"
               width="100%"
               height="100%"
               style="fill:#ffffff" />
            <use
               xlink:href="#c"
               transform="rotate(144)"
               id="use2305"
               x="0"
               y="0"
               width="100%"
               height="100%"
               style="fill:#ffffff" />
            <use
               xlink:href="#c"
               transform="rotate(-144)"
               id="use2307"
               x="0"
               y="0"
               width="100%"
               height="100%"
               style="fill:#ffffff" />
            <use
               xlink:href="#c"
               transform="rotate(-72)"
               id="use2309"
               x="0"
               y="0"
               width="100%"
               height="100%"
               style="fill:#ffffff" />
          </g>
          <use
             xlink:href="#s"
             transform="translate(60,16.076952)"
             id="use2312"
             x="0"
             y="0"
             width="100%"
             height="100%"
             style="fill:#ffffff" />
          <use
             xlink:href="#s"
             transform="translate(103.92305,60)"
             id="use2314"
             x="0"
             y="0"
             width="100%"
             height="100%"
             style="fill:#ffffff" />
          <use
             xlink:href="#s"
             transform="translate(120,120)"
             id="use2316"
             x="0"
             y="0"
             width="100%"
             height="100%"
             style="fill:#ffffff" />
          <use
             xlink:href="#s"
             transform="translate(103.92305,180)"
             id="use2318"
             x="0"
             y="0"
             width="100%"
             height="100%"
             style="fill:#ffffff" />
          <use
             xlink:href="#s"
             transform="translate(60,223.92305)"
             id="use2320"
             x="0"
             y="0"
             width="100%"
             height="100%"
             style="fill:#ffffff" />
          <use
             xlink:href="#s"
             transform="translate(0,240)"
             id="use2322"
             x="0"
             y="0"
             width="100%"
             height="100%"
             style="fill:#ffffff" />
          <use
             xlink:href="#s"
             transform="translate(-60,223.92305)"
             id="use2324"
             x="0"
             y="0"
             width="100%"
             height="100%"
             style="fill:#ffffff" />
          <use
             xlink:href="#s"
             transform="translate(-103.92305,180)"
             id="use2326"
             x="0"
             y="0"
             width="100%"
             height="100%"
             style="fill:#ffffff" />
          <use
             xlink:href="#s"
             transform="translate(-120,120)"
             id="use2328"
             x="0"
             y="0"
             width="100%"
             height="100%"
             style="fill:#ffffff" />
          <use
             xlink:href="#s"
             transform="translate(-103.92305,60)"
             id="use2330"
             x="0"
             y="0"
             width="100%"
             height="100%"
             style="fill:#ffffff" />
          <use
             xlink:href="#s"
             transform="translate(-60,16.076952)"
             id="use2332"
             x="0"
             y="0"
             width="100%"
             height="100%"
             style="fill:#ffffff" />
        </g>
        <defs
           id="defs835">
          <linearGradient
             id="linearGradient856"
             x1="30.5"
             y1="0.0130005"
             x2="30.5"
             y2="65.013"
             gradientUnits="userSpaceOnUse">
            <stop
               stop-color="#6364FF"
               id="stop852" />
            <stop
               offset="1"
               stop-color="#563ACC"
               id="stop854" />
          </linearGradient>
        </defs>
      </symbol>
      <use
         xlink:href="#logo-symbol-wordmark"
         id="use838"
         x="0"
         y="0"
         width="100%"
         height="100%" />
    </g>
  </g>
</svg>

<svg width="261" height="66" viewBox="0 0 261 66" fill="none" xmlns="http://www.w3.org/2000/svg" xmlns:xlink="http://www.w3.org/1999/xlink">
<symbol id="logo-symbol-wordmark"><path d="M60.7539 14.4034C59.8143 7.41942 53.7273 1.91557 46.5117 0.849066C45.2943 0.668854 40.6819 0.0130005 29.9973 0.0130005H29.9175C19.2299 0.0130005 16.937 0.668854 15.7196 0.849066C8.70488 1.88602 2.29885 6.83152 0.744617 13.8982C-0.00294988 17.3784 -0.0827298 21.2367 0.0561464 24.7759C0.254119 29.8514 0.292531 34.918 0.753482 39.9728C1.07215 43.3305 1.62806 46.6614 2.41704 49.9406C3.89445 55.9969 9.87499 61.0369 15.7344 63.0931C22.0077 65.2374 28.7542 65.5934 35.2184 64.1212C35.9295 63.9558 36.6318 63.7638 37.3252 63.5451C38.8971 63.0459 40.738 62.4875 42.0913 61.5067C42.1099 61.4929 42.1251 61.4751 42.1358 61.4547C42.1466 61.4342 42.1526 61.4116 42.1534 61.3885V56.4903C42.153 56.4687 42.1479 56.4475 42.1383 56.4281C42.1287 56.4088 42.1149 56.3918 42.0979 56.3785C42.0809 56.3652 42.0611 56.3559 42.04 56.3512C42.019 56.3465 41.9971 56.3466 41.9761 56.3514C37.8345 57.3406 33.5905 57.8364 29.3324 57.8286C22.0045 57.8286 20.0336 54.3514 19.4693 52.9038C19.0156 51.6527 18.7275 50.3476 18.6124 49.0218C18.6112 48.9996 18.6153 48.9773 18.6243 48.9569C18.6333 48.9366 18.647 48.9186 18.6643 48.9045C18.6816 48.8904 18.7019 48.8805 18.7237 48.8758C18.7455 48.871 18.7681 48.8715 18.7897 48.8771C22.8622 49.8595 27.037 50.3553 31.2265 50.3542C32.234 50.3542 33.2387 50.3542 34.2463 50.3276C38.4598 50.2094 42.9009 49.9938 47.0465 49.1843C47.1499 49.1636 47.2534 49.1459 47.342 49.1193C53.881 47.8637 60.1038 43.9227 60.7362 33.9431C60.7598 33.5502 60.8189 29.8278 60.8189 29.4201C60.8218 28.0345 61.2651 19.5911 60.7539 14.4034Z" fill="url(#paint0_linear_89_11)"/>
<path d="M12.3442 18.3034C12.3442 16.2668 13.9777 14.6194 15.997 14.6194C18.0163 14.6194 19.6497 16.2668 19.6497 18.3034C19.6497 20.34 18.0163 21.9874 15.997 21.9874C13.9777 21.9874 12.3442 20.34 12.3442 18.3034Z" fill="currentColor"/>
<path d="M66.1484 21.4685V38.3839H59.4988V21.9744C59.4988 18.5109 58.0583 16.7597 55.1643 16.7597C51.9746 16.7597 50.3668 18.8482 50.3668 22.9603V31.9499H43.7687V22.9603C43.7687 18.8352 42.1738 16.7597 38.9712 16.7597C36.0901 16.7597 34.6367 18.5109 34.6367 21.9744V38.3839H28V21.4685C28 18.018 28.8746 15.268 30.6238 13.2314C32.4374 11.1948 34.8039 10.157 37.7365 10.157C41.132 10.157 43.7172 11.4802 45.415 14.1135L47.0742 16.9154L48.7334 14.1135C50.4311 11.4802 53.0035 10.157 56.4119 10.157C59.3444 10.157 61.711 11.1948 63.5246 13.2314C65.2738 15.268 66.1484 18.005 66.1484 21.4685ZM89.0297 29.8743C90.4059 28.4085 91.0619 26.5795 91.0619 24.3613C91.0619 22.1431 90.4059 20.3011 89.0297 18.9001C87.7049 17.4343 86.0329 16.7338 84.0007 16.7338C81.9685 16.7338 80.2965 17.4343 78.9717 18.9001C77.6469 20.3011 76.991 22.1431 76.991 24.3613C76.991 26.5795 77.6469 28.4215 78.9717 29.8743C80.2965 31.2753 81.9685 31.9888 84.0007 31.9888C86.0329 31.9888 87.7049 31.2883 89.0297 29.8743ZM91.0619 10.8316H97.6086V37.891H91.0619V34.6999C89.0811 37.3462 86.3416 38.6563 82.7788 38.6563C79.2161 38.6563 76.4765 37.3073 74.0456 34.5442C71.6533 31.7812 70.4443 28.3696 70.4443 24.3743C70.4443 20.3789 71.6661 17.0192 74.0456 14.2561C76.4893 11.4931 79.3833 10.0922 82.7788 10.0922C86.1744 10.0922 89.0811 11.3894 91.0619 14.0356V10.8445V10.8316ZM119.654 23.8683C121.583 25.3342 122.548 27.3837 122.496 29.9781C122.496 32.7411 121.532 34.9075 119.551 36.4122C117.57 37.878 115.178 38.6304 112.284 38.6304C107.049 38.6304 103.499 36.4641 101.621 32.1963L107.306 28.7847C108.065 31.1067 109.737 32.3001 112.284 32.3001C114.625 32.3001 115.782 31.5477 115.782 29.9781C115.782 28.8366 114.265 27.8118 111.165 27.0075C109.995 26.6833 109.03 26.359 108.271 26.0865C107.204 25.6585 106.29 25.1655 105.532 24.5688C103.654 23.103 102.689 21.1572 102.689 18.6666C102.689 16.0203 103.602 13.9059 105.429 12.3882C107.306 10.8186 109.596 10.0662 112.335 10.0662C116.709 10.0662 119.898 11.9601 121.982 15.7998L116.4 19.0428C115.59 17.2008 114.213 16.2798 112.335 16.2798C110.355 16.2798 109.39 17.0321 109.39 18.498C109.39 19.6395 110.908 20.6643 114.008 21.4685C116.4 22.0134 118.278 22.8176 119.641 23.8554L119.654 23.8683ZM140.477 17.538H134.741V28.7977C134.741 30.1468 135.255 30.964 136.22 31.3402C136.927 31.6126 138.355 31.6645 140.49 31.5607V37.891C136.079 38.4358 132.876 37.9948 130.998 36.5419C129.12 35.1409 128.207 32.5336 128.207 28.8106V17.538H123.795V10.8316H128.207V5.37038L134.754 3.25595V10.8316H140.49V17.538H140.477ZM161.352 29.7187C162.677 28.3177 163.333 26.5276 163.333 24.3613C163.333 22.195 162.677 20.4178 161.352 19.0039C160.027 17.6029 158.407 16.8894 156.426 16.8894C154.445 16.8894 152.825 17.5899 151.5 19.0039C150.227 20.4697 149.571 22.2469 149.571 24.3613C149.571 26.4757 150.227 28.2529 151.5 29.7187C152.825 31.1196 154.445 31.8331 156.426 31.8331C158.407 31.8331 160.027 31.1326 161.352 29.7187ZM146.883 34.5313C144.297 31.7682 143.024 28.4215 143.024 24.3613C143.024 20.3011 144.297 17.0062 146.883 14.2432C149.468 11.4802 152.67 10.0792 156.426 10.0792C160.182 10.0792 163.384 11.4802 165.97 14.2432C168.555 17.0062 169.88 20.4178 169.88 24.3613C169.88 28.3047 168.555 31.7682 165.97 34.5313C163.384 37.2943 160.233 38.6434 156.426 38.6434C152.619 38.6434 149.468 37.2943 146.883 34.5313ZM191.771 29.8743C193.095 28.4085 193.751 26.5795 193.751 24.3613C193.751 22.1431 193.095 20.3011 191.771 18.9001C190.446 17.4343 188.774 16.7338 186.742 16.7338C184.709 16.7338 183.037 17.4343 181.661 18.9001C180.336 20.3011 179.68 22.1431 179.68 24.3613C179.68 26.5795 180.336 28.4215 181.661 29.8743C183.037 31.2753 184.761 31.9888 186.742 31.9888C188.722 31.9888 190.446 31.2883 191.771 29.8743ZM193.751 0H200.298V37.891H193.751V34.6999C191.822 37.3462 189.082 38.6563 185.52 38.6563C181.957 38.6563 179.179 37.3073 176.735 34.5442C174.343 31.7812 173.134 28.3696 173.134 24.3743C173.134 20.3789 174.356 17.0192 176.735 14.2561C179.166 11.4931 182.111 10.0922 185.52 10.0922C188.928 10.0922 191.822 11.3894 193.751 14.0356V0.0129719V0ZM223.308 29.7057C224.633 28.3047 225.289 26.5146 225.289 24.3483C225.289 22.182 224.633 20.4048 223.308 18.9909C221.983 17.5899 220.363 16.8765 218.382 16.8765C216.401 16.8765 214.78 17.577 213.456 18.9909C212.182 20.4567 211.526 22.2339 211.526 24.3483C211.526 26.4627 212.182 28.2399 213.456 29.7057C214.78 31.1067 216.401 31.8201 218.382 31.8201C220.363 31.8201 221.983 31.1196 223.308 29.7057ZM208.838 34.5183C206.253 31.7553 204.98 28.4085 204.98 24.3483C204.98 20.2881 206.253 16.9932 208.838 14.2302C211.424 11.4672 214.626 10.0662 218.382 10.0662C222.137 10.0662 225.34 11.4672 227.925 14.2302C230.511 16.9932 231.835 20.4048 231.835 24.3483C231.835 28.2918 230.511 31.7553 227.925 34.5183C225.34 37.2813 222.189 38.6304 218.382 38.6304C214.575 38.6304 211.424 37.2813 208.838 34.5183ZM260.17 21.261V37.878H253.623V22.1301C253.623 20.34 253.173 18.9909 252.247 17.9661C251.385 17.0451 250.164 16.5651 248.594 16.5651C244.89 16.5651 243.012 18.7833 243.012 23.2716V37.878H236.466V10.8316H243.012V13.867C244.581 11.3245 247.077 10.0792 250.575 10.0792C253.366 10.0792 255.656 11.0521 257.431 13.0498C259.257 15.0474 260.17 17.7586 260.17 21.274" fill="currentColor"/>
<defs>
<linearGradient id="paint0_linear_89_11" x1="30.5" y1="0.0130005" x2="30.5" y2="65.013" gradientUnits="userSpaceOnUse">
<stop stop-color="#6364FF"/>
<stop offset="1" stop-color="#563ACC"/>
</linearGradient>
</defs></symbol><use xlink:href="#logo-symbol-wordmark"/>
</svg>
